X: 1
T: Die fidelen Münsinger CGF chords
T:Hanny Christen. Bd.VIII Zug, Luzern, Uri I. S.212 (wz09853) orig. C,G,F-Dur
T: Tänze aus Marbach (Luzern)
M:2/4
L:1/16
K:C %%MIDI gchordon
ba | "G7"Pg2fb Pg2fb | Pg2eb agfB | "C"c2eg c'2ea | Pg4 agec | "G7"B2df b2da | Pg4 agfB | "C"c2eg a2ec' | 
g6 ba | "G7"Pg2fb Pg2fb | Pg2fb agfb | "C"c2eg c'2ea | Pg6 (3gab | "F"c'6 ba | "C"Pa2g2 d2e2 | 
"G7"e2d2 dGAB | "C"c2e2 c2d2 |: [K:G] "G"ed^cd gdcd | "D7"ed^cd adcd | ed^cd fdcd | "G"efga bd^cd | "D7"ed^cd adcd | 
"G"ed^cd bdcd | dBAG "D7"FDEF |1 "G"G2G2 G2d2 :|2 "G"G2G2 G2b"_> Teil A"a || [K:F] cc |: "F"A2c2 f2a2 | c'6 c'c' | 
c'bag fedc | "C7"BAGF EDC=B, | C2E2 G2c2 | e6 dc | "F"fac'2 "C7"egc'e | "F"fagf edcB | A2c2 f2a2 | 
c'6 ff | f4 e3_e | "Bb"d6 dd | d^cde fefg | "F"acfa c'4 | "C7"bagf ecde |1 "F"f2f2 f2cc :|2 "F"f2f2 f2z2 |]  

